!!!OTL: Zangzu renmin xizaixin
!!!ARE: Asia, China,ÿQinghai Yushu
!! I, 216, 1)
!!!SCT: C1846
!!!YEM: Copyright 1995, estate of Helmut Schaffrath.
**kern
*ICvox
*Ivox
!! Mixed meters:  3/8; 4/8
*M3/8
*k[]
*C:
{8A
8A
16c
16d
16e
16g
=1
2a
=2
8dd
16a
16cc
16a
16g
=3
16a
16g
16e
16d
16c
16d
=4
16e
16g
16d
16e
16c
16d
=5
16A
16G
[4A
=6
4.A]}
=7
*M4/8
{8A
8A
16c
16d
16e
16g
=8
8a
16e
16g
16c
16d
16e
16g
=9
8a
16e
16g
16e
16d
16c
16A
=10
8A
8c
16d
16e
16c
16d
=11
*M3/8
8A
[4A
=12
4.A]}
==
!!!AGN: Shange
!! Zang
!!!ONB: ESAC (Essen Associative Code) Database: SENGANSU
!!!AMT: irregular
!!!AIN: vox
!!!EED: Helmut Schaffrath
!!!EEV: 1.0
*-
!!!ONB: Tied note syntax fixed by Craig Sapp, 2004/05/03/
